lib/brands/icons/bugherd.svg

<svg xmlns="http://www.w3.org/2000/svg" fill="none" aria-hidden="true" viewBox="0 0 48 48"><g id="bugherd-Icon"><g id="Group"><path id="Vector" fill="#222222" d="M24.8895 42H23.1163C23.0511 41.9868 22.9865 41.9694 22.9207 41.961C22.1111 41.8576 21.2911 41.806 20.4933 41.6447C16.5627 40.8496 13.2162 38.9798 10.5857 35.9539C6.50636 31.2611 5.13358 25.8165 6.55143 19.772C8.40042 11.8896 15.35 6.29604 23.4131 6.03839C23.5893 6.03278 23.7651 6.01311 23.9411 6H24.1061C24.1646 6.01089 24.2232 6.03118 24.2818 6.03126C25.4123 6.03258 26.5313 6.15794 27.635 6.39093C31.6114 7.23023 34.9666 9.16528 37.6081 12.2492C41.0035 16.2133 42.4097 20.8289 41.8818 26.0241C41.6716 28.0929 41.0925 30.0616 40.167 31.9221C38.333 35.6086 35.5624 38.3654 31.8718 40.1882C29.907 41.1586 27.8254 41.7287 25.6412 41.9207C25.3903 41.9428 25.1401 41.9734 24.8895 42ZM14.0435 23.7191C14.4245 23.3318 14.5763 23.0596 14.5854 22.6982C14.5951 22.3136 14.5987 21.9282 14.585 21.5439C14.5603 20.8565 14.1484 20.3532 13.4673 20.2725C12.9249 20.2081 12.3709 20.2258 11.8226 20.2359C11.5723 20.2405 11.398 20.4693 11.3977 20.7366C11.3951 22.8052 11.3947 24.8738 11.3983 26.9424C11.3988 27.2387 11.6123 27.4403 11.9136 27.4435C12.3671 27.4484 12.821 27.4536 13.2743 27.4427C14.1549 27.4216 14.7852 26.7722 14.7881 25.8955C14.789 25.5999 14.7875 25.3044 14.7883 25.0089C14.79 24.4424 14.5866 23.9922 14.0435 23.7191ZM24.2315 23.2305C24.2315 23.1427 24.2314 23.0685 24.2314 22.9944C24.2314 22.2452 24.2318 21.4961 24.2314 20.7469C24.2311 20.3596 24.038 20.1448 23.6895 20.1427C23.3351 20.1405 23.1341 20.3511 23.1339 20.7345C23.1327 22.8033 23.1327 24.872 23.1339 26.9407C23.1342 27.3212 23.3389 27.5313 23.6948 27.5274C24.034 27.5237 24.2309 27.3085 24.2312 26.9382C24.2319 26.1273 24.2314 25.3163 24.2314 24.5053V24.2826H25.4425V24.5386C25.4425 25.3427 25.4409 26.1468 25.4434 26.951C25.4445 27.3185 25.6475 27.527 25.9937 27.5275C26.3422 27.528 26.5398 27.3214 26.5404 26.9517C26.5414 26.2644 26.5407 25.5772 26.5407 24.8899C26.5407 23.4947 26.5411 22.0995 26.5403 20.7043C26.5401 20.4177 26.4042 20.2238 26.1637 20.1581C25.7782 20.0527 25.4471 20.2925 25.4443 20.6917C25.4389 21.4546 25.4426 22.2175 25.4425 22.9804V23.2305C25.0304 23.2305 24.6476 23.2305 24.2315 23.2305ZM20.2627 25.8393C20.3186 25.8488 20.3653 25.8577 20.4122 25.8648C21.3576 26.0068 22.0748 25.5176 22.1947 24.6235C22.2345 24.3263 22.2045 24.02 22.2117 23.718C22.2189 23.4186 22.1965 23.1289 21.9714 22.8806C22.0599 22.8691 22.1267 22.8638 22.1921 22.8513C22.5287 22.7873 22.6628 22.5994 22.6128 22.2653C22.5703 21.9814 22.4221 21.8845 22.0729 21.9133C22.0319 21.9167 21.9912 21.9241 21.9503 21.9285C21.4735 21.9795 20.9977 22.0478 20.5196 22.077C19.8584 22.1174 19.3529 22.5247 19.2415 23.1791C19.1958 23.4473 19.2112 23.7256 19.1969 23.9993C19.168 24.5545 19.2167 25.0874 19.6486 25.5106C19.3734 25.7096 19.2014 25.9465 19.1764 26.272C19.151 26.6031 19.2606 26.8755 19.5568 27.0684C19.4938 27.1119 19.4605 27.1348 19.4272 27.1578C19.0422 27.4228 18.8952 27.7946 18.9586 28.2478C19.0203 28.6898 19.2957 28.9641 19.7077 29.0904C20.328 29.2805 20.9608 29.3053 21.5625 29.0457C21.8225 28.9335 22.0851 28.7478 22.2576 28.5262C22.9199 27.6758 22.4396 26.4663 21.4038 26.3413C21.1192 26.3069 20.8275 26.3336 20.5391 26.3273C20.2078 26.32 20.1137 26.1628 20.2627 25.8393ZM35.4445 22.4689C35.3405 22.3822 35.273 22.3117 35.1927 22.2614C34.8205 22.028 34.4264 22.0083 34.0344 22.1927C33.6708 22.3637 33.5315 22.6932 33.5286 23.0715C33.52 24.2253 33.5157 25.3794 33.5295 26.5332C33.5371 27.1749 33.9966 27.5865 34.6389 27.5682C34.9868 27.5584 35.2444 27.3801 35.4602 27.0935C35.5321 27.3217 35.6476 27.4835 35.8763 27.5223C36.2523 27.5861 36.4994 27.3757 36.5003 26.9819C36.5033 25.8005 36.5015 24.6191 36.5015 23.4377C36.5015 22.5242 36.5003 21.6107 36.5023 20.6972C36.5027 20.4916 36.4504 20.3153 36.2617 20.207C35.8808 19.9881 35.4473 20.2335 35.4452 20.6706C35.4425 21.26 35.4445 21.8494 35.4445 22.4689ZM17.4036 27.0885C17.4229 27.1472 17.43 27.1736 17.4401 27.1989C17.5469 27.4651 17.7542 27.5745 18.0518 27.5223C18.2849 27.4814 18.4132 27.307 18.4169 27.0251C18.4177 26.9564 18.417 26.8877 18.417 26.819C18.417 25.4313 18.418 24.0436 18.4164 22.6559C18.416 22.3085 18.2227 22.1198 17.8808 22.1221C17.5477 22.1243 17.3617 22.3171 17.361 22.6746C17.3589 23.8562 17.361 25.0378 17.3582 26.2193C17.358 26.298 17.3573 26.4016 17.3111 26.4506C17.1745 26.5955 16.9932 26.6329 16.8 26.5773C16.6305 26.5285 16.5662 26.3988 16.5563 26.2345C16.55 26.1318 16.5434 26.0289 16.5433 25.9261C16.5424 24.8475 16.5438 23.7689 16.542 22.6904C16.5414 22.3165 16.3591 22.1231 16.0171 22.1221C15.6698 22.1211 15.4863 22.3125 15.4861 22.6815C15.4853 23.9386 15.4829 25.1958 15.4869 26.4529C15.4894 27.2037 15.9144 27.6074 16.6511 27.5675C16.9763 27.5499 17.2227 27.3932 17.4036 27.0885ZM28.4833 25.1357C28.9655 25.1357 29.4246 25.137 29.8838 25.1352C30.1785 25.1341 30.3248 24.9896 30.3275 24.6914C30.3311 24.2793 30.3369 23.8668 30.3264 23.4549C30.3063 22.6615 29.7766 22.1073 29.0264 22.0811C28.0795 22.048 27.4913 22.4815 27.4489 23.3447C27.4 24.3382 27.4078 25.3363 27.4383 26.331C27.4579 26.9708 27.8309 27.3887 28.3985 27.5163C28.5772 27.5565 28.7658 27.5663 28.9498 27.5663C29.7941 27.5663 30.326 27.0133 30.3006 26.172C30.2912 25.8618 30.1189 25.6918 29.8091 25.6873C29.4809 25.6825 29.3117 25.8431 29.3003 26.1706C29.2989 26.2117 29.2997 26.2531 29.2956 26.294C29.2697 26.556 29.1309 26.6929 28.8899 26.6959C28.6542 26.6988 28.496 26.5576 28.4867 26.2955C28.4733 25.9192 28.4833 25.5419 28.4833 25.1357ZM32.0815 22.6264C32.0398 22.4037 31.9711 22.2282 31.7492 22.1734C31.3622 22.0778 31.0948 22.282 31.093 22.6806C31.0899 23.3532 31.0921 24.0259 31.0921 24.6985C31.0921 25.4535 31.0909 26.2085 31.0927 26.9635C31.0935 27.2682 31.2184 27.4522 31.4577 27.5146C31.8435 27.6151 32.1478 27.3848 32.1484 26.9858C32.1501 25.7984 32.1489 24.611 32.1492 23.4236C32.1492 23.1924 32.2142 23.136 32.4459 23.164C32.5545 23.1772 32.6631 23.2033 32.7714 23.2024C33.0423 23.1999 33.2102 23.0047 33.221 22.6951C33.2335 22.3416 33.093 22.1498 32.8023 22.1231C32.4234 22.0882 32.2753 22.1875 32.0815 22.6264ZM12.4871 26.4856V24.2515C12.7324 24.2515 12.9722 24.2292 13.206 24.2574C13.4761 24.2899 13.6541 24.4654 13.6693 24.7331C13.693 25.1497 13.6937 25.5694 13.6702 25.986C13.6549 26.2557 13.4708 26.4123 13.202 26.4569C13.1074 26.4726 13.0111 26.4812 12.9153 26.4845C12.7793 26.489 12.643 26.4856 12.4871 26.4856ZM12.4886 23.2766V21.174C12.716 21.1898 12.9336 21.1921 13.1469 21.2238C13.3163 21.2489 13.4522 21.3682 13.4598 21.5371C13.4796 21.98 13.4877 22.4253 13.4638 22.8677C13.4522 23.0834 13.2828 23.2199 13.0614 23.246C12.8793 23.2675 12.6947 23.2665 12.4886 23.2766ZM20.2318 23.9828C20.2316 23.7904 20.2219 23.5974 20.2339 23.4058C20.2519 23.1193 20.4252 22.9537 20.6905 22.9489C20.9705 22.9439 21.1603 23.1054 21.1721 23.3997C21.1876 23.7838 21.1867 24.1694 21.173 24.5536C21.1625 24.8469 20.9725 25.0148 20.6968 25.0118C20.4315 25.009 20.2535 24.8432 20.2344 24.5597C20.2216 24.3682 20.232 24.1752 20.2318 23.9828ZM20.6923 28.3809C20.5972 28.3691 20.5005 28.3646 20.4073 28.344C20.0055 28.2557 19.8584 27.8543 20.0753 27.4468C20.1608 27.2863 20.2648 27.1726 20.4765 27.2011C20.6586 27.2257 20.8462 27.2073 21.0297 27.2249C21.2503 27.2461 21.4189 27.347 21.4806 27.5794C21.5428 27.8136 21.4754 28.0746 21.2688 28.197C21.098 28.2982 20.8951 28.3455 20.7065 28.4166C20.7018 28.4047 20.697 28.3928 20.6923 28.3809ZM35.4445 24.8246C35.4445 25.3051 35.4447 25.7857 35.4444 26.2662C35.4443 26.5037 35.3448 26.6104 35.0899 26.6483C34.8552 26.6832 34.6801 26.5893 34.6184 26.3852C34.5951 26.3078 34.5838 26.2238 34.5835 26.1427C34.5811 25.2572 34.5794 24.3715 34.5832 23.486C34.5849 23.0842 34.8688 22.8925 35.2294 23.0401C35.3731 23.099 35.4549 23.182 35.4495 23.3625C35.4349 23.8494 35.4445 24.3372 35.4445 24.8246ZM29.2697 24.2887H28.4916C28.4916 23.9518 28.4757 23.6249 28.4972 23.3004C28.5117 23.0813 28.6819 22.9602 28.8929 22.9644C29.1011 22.9685 29.2497 23.0776 29.2643 23.2979C29.2857 23.622 29.2697 23.9486 29.2697 24.2887Z"/><path id="Vector_2" fill="#6DB6D1" d="M37.9323 26.2407C38.3124 26.2381 38.5695 26.4878 38.5735 26.8633C38.5776 27.2508 38.3175 27.5197 37.9394 27.5191C37.5694 27.5184 37.3107 27.2566 37.3086 26.8805C37.3065 26.5004 37.557 26.2434 37.9323 26.2407Z"/></g></g></svg>

<svg xmlns="http://www.w3.org/2000/svg" fill="none" aria-hidden="true" viewBox="0 0 48 48"><path fill="#222" d="M24.89 42h-1.774c-.065-.013-.13-.03-.195-.039-.81-.103-1.63-.155-2.428-.316-3.93-.795-7.277-2.665-9.907-5.691-4.08-4.693-5.452-10.137-4.035-16.182C8.401 11.89 15.35 6.296 23.413 6.038c.176-.005.352-.025.528-.038h.165c.059.01.117.031.176.031a16.3 16.3 0 0 1 3.353.36c3.976.84 7.332 2.774 9.973 5.858 3.396 3.964 4.802 8.58 4.274 13.775a17.02 17.02 0 0 1-1.715 5.898c-1.834 3.687-4.605 6.443-8.295 8.266a17.39 17.39 0 0 1-6.23 1.733c-.252.022-.502.052-.752.079ZM14.043 23.72c.382-.388.533-.66.542-1.022a18.5 18.5 0 0 0 0-1.154c-.025-.688-.437-1.19-1.118-1.271-.542-.065-1.096-.047-1.644-.037-.25.005-.425.233-.425.5-.003 2.07-.003 4.138 0 6.206 0 .297.214.498.516.502.453.004.907.01 1.36-.001.88-.021 1.511-.67 1.514-1.548v-.886c.002-.567-.201-1.017-.745-1.29Zm10.189-.49v-2.483c0-.387-.194-.602-.543-.604-.354-.003-.555.208-.555.591v6.207c0 .38.205.59.56.586.34-.003.537-.219.537-.589v-2.655h1.211v.256c0 .804-.001 1.608.001 2.412.002.367.204.576.55.576.35.001.547-.206.547-.575v-6.248c0-.286-.136-.48-.376-.546-.386-.105-.717.134-.72.534-.005.763-.001 1.526-.002 2.288v.25h-1.21Zm-3.97 2.61.15.025c.946.142 1.663-.347 1.783-1.241.04-.298.01-.604.017-.906.007-.3-.015-.59-.24-.837.088-.012.155-.017.22-.03.337-.064.47-.252.42-.586-.042-.284-.19-.38-.54-.352-.04.004-.08.011-.122.015-.476.052-.952.12-1.43.149-.662.04-1.167.448-1.279 1.102-.045.268-.03.547-.044.82-.029.556.02 1.088.452 1.512-.276.199-.448.436-.473.761-.025.331.085.604.38.796l-.129.09c-.385.265-.532.637-.468 1.09.061.442.337.716.749.842.62.19 1.253.215 1.855-.044.26-.113.522-.298.695-.52.662-.85.182-2.06-.854-2.185-.285-.034-.576-.007-.865-.014-.331-.007-.425-.164-.276-.488Zm15.182-3.371c-.104-.087-.171-.157-.251-.208a1.151 1.151 0 0 0-1.159-.068c-.363.17-.502.5-.505.878a178.328 178.328 0 0 0 0 3.462c.008.642.468 1.053 1.11 1.035.348-.01.605-.188.821-.475.072.229.188.39.416.43.376.063.623-.147.624-.541.003-1.181.002-2.363.002-3.544 0-.914-.002-1.827 0-2.74 0-.206-.052-.383-.24-.491-.381-.219-.815.026-.817.464-.002.589 0 1.178 0 1.798Zm-18.04 4.62c.019.058.026.085.036.11.107.266.314.375.612.323.233-.04.361-.215.365-.497v-4.369c-.001-.348-.194-.536-.536-.534-.333.002-.52.195-.52.553-.002 1.181 0 2.363-.003 3.544 0 .079 0 .183-.047.232a.483.483 0 0 1-.511.126c-.17-.049-.234-.178-.244-.343-.006-.102-.013-.205-.013-.308l-.001-3.236c0-.373-.183-.567-.525-.568-.347 0-.53.19-.53.56-.002 1.257-.004 2.514 0 3.77.002.752.427 1.155 1.164 1.115.325-.017.572-.174.753-.479Zm11.08-1.953h1.4c.294-.002.44-.146.444-.445.003-.412.009-.824-.002-1.236-.02-.793-.55-1.348-1.3-1.374-.947-.033-1.535.4-1.577 1.264a37.453 37.453 0 0 0-.01 2.986c.019.64.392 1.058.96 1.185.178.04.367.05.55.05.845 0 1.377-.553 1.352-1.394-.01-.31-.182-.48-.492-.485-.328-.005-.497.156-.509.484-.001.04 0 .082-.004.123-.026.262-.165.399-.406.402-.236.003-.394-.138-.403-.4-.014-.377-.004-.754-.004-1.16Zm3.597-2.51c-.041-.222-.11-.398-.332-.453-.387-.095-.654.109-.656.508-.003.672 0 1.345 0 2.017 0 .755-.002 1.51 0 2.265 0 .305.125.49.365.552.386.1.69-.13.69-.53.002-1.187 0-2.374.001-3.561 0-.232.065-.288.297-.26.108.013.217.04.325.038.271-.002.44-.197.45-.507.013-.353-.128-.545-.419-.572-.379-.035-.527.064-.72.503Zm-19.594 3.86V24.25c.245 0 .485-.022.719.006.27.033.448.208.463.476.024.417.025.836.001 1.253-.015.27-.2.426-.468.47-.095.017-.19.025-.287.029-.136.004-.272 0-.428 0Zm.002-3.21v-2.102c.227.016.445.018.658.05.17.025.305.144.313.313.02.443.028.888.004 1.33-.012.216-.181.353-.403.379-.182.021-.366.02-.572.03Zm7.743.707c0-.193-.01-.386.002-.577.018-.287.191-.452.456-.457.28-.005.47.156.482.45.016.385.015.77.001 1.155-.01.293-.2.46-.476.458-.265-.003-.444-.169-.463-.452-.012-.192-.002-.385-.002-.577Zm.46 4.398c-.095-.012-.192-.016-.285-.037-.401-.088-.549-.49-.332-.897.086-.16.19-.274.402-.246.182.025.37.006.553.024.22.021.389.122.45.354.063.235-.005.496-.211.618-.171.101-.374.149-.563.22l-.014-.036Zm14.752-3.556v1.441c0 .238-.1.344-.354.382-.235.035-.41-.059-.472-.263a.863.863 0 0 1-.035-.242c-.002-.886-.004-1.771 0-2.657.002-.402.286-.594.646-.446.144.059.226.142.22.323-.014.486-.005.974-.005 1.462Zm-6.174-.536h-.778c0-.337-.016-.664.005-.989.015-.219.185-.34.396-.336.208.005.357.114.371.334.022.324.006.65.006.99Z"/><path fill="#6DB6D1" d="M37.932 26.24c.38-.002.637.248.642.623.004.388-.256.657-.635.656-.37 0-.628-.262-.63-.638-.002-.38.248-.638.623-.64Z"/></svg>
